assets/awsiq/original.svg

<svg height="64" viewBox="0 0 64 64" width="64" xmlns="http://www.w3.org/2000/svg"><g fill="none" fill-rule="evenodd"><path d="m0 0h64v64h-64z" fill="#c925d1"/><path d="m16.057 28.264 1.268 1.548-7.7 6.301-5.006-3.65 1.178-1.616 3.757 2.74zm-10.057-21.264c0-2.757 2.244-5 5.001-5a5.005 5.005 0 0 1 5 5 5.005 5.005 0 0 1 -4.993 5h-.01a5.007 5.007 0 0 1 -4.998-5m5.037 7c.035-.007 3.211-.089 5.813 1.8l1.176-1.618a11 11 0 0 0 -2.946-1.505 6.99 6.99 0 0 0 2.92-5.677c0-3.86-3.139-7-6.999-7s-7 3.14-7 7a6.99 6.99 0 0 0 2.943 5.694c-6.973 2.405-6.946 10.231-6.944 10.323l2-.031c-.004-.356.003-8.732 9.037-8.986m9.963 23v-11.119l-.193-.112c2.267-1.741 5.258-2.769 8.193-2.769 2.303 0 4.297.62 6.466 2.01 3.66 2.343 6.196 7.072 6.503 11.99zm-19-.119v-9.843l8.5-5.038 8.5 5.038v9.843l-8.5 5.119zm20-22.969c0-3.831 3.14-6.947 7-6.947 3.858 0 6.997 3.116 6.997 6.947s-3.139 6.948-6.997 6.948-7-3.117-7-6.948m22 24.088c0-5.922-2.996-11.82-7.456-14.674a15.3 15.3 0 0 0 -3.2-1.583c2.772-1.527 4.653-4.463 4.653-7.831 0-4.933-4.036-8.947-8.998-8.947s-8.999 4.014-8.999 8.947c0 3.322 1.834 6.221 4.545 7.765-2.078.623-4.017 1.661-5.592 3.027l-8.453-4.704-10.5 5.881v12.157l10.5 5.962 8.826-5h24.674z" fill="#fff" transform="translate(10 10)"/></g></svg>

<svg xmlns="http://www.w3.org/2000/svg" width="64" height="64" viewBox="0 0 64 64"><title>Icon-Architecture/48/Arch_AWS-IQ_48</title><g id="Icon-Architecture/48/Arch_AWS-IQ_48" fill="none" fill-rule="evenodd" stroke="none" stroke-width="1"><g id="Icon-Architecture-BG/48/Customer-Enablement" fill="#c925d1"><path id="Rectangle" d="M0 0h64v64H0z"/></g><g id="Icon-Service/48/AWS-IQ_48" fill="#fff" transform="translate(10 10)"><path id="AWS-IQ_48_Squid" d="m16.057 28.264 1.268 1.548-7.7 6.301-5.006-3.65 1.178-1.616 3.757 2.74zM6 7c0-2.757 2.244-5 5.001-5a5.005 5.005 0 0 1 5 5 5.005 5.005 0 0 1-4.993 5h-.01A5.007 5.007 0 0 1 6 7m5.037 7c.035-.007 3.211-.089 5.813 1.8l1.176-1.618a11 11 0 0 0-2.946-1.505A6.99 6.99 0 0 0 18 7c0-3.86-3.139-7-6.999-7s-7 3.14-7 7a6.99 6.99 0 0 0 2.943 5.694C-.029 15.099-.002 22.925 0 23.017l2-.031c-.004-.356.003-8.732 9.037-8.986M21 37V25.881l-.193-.112C23.074 24.028 26.065 23 29 23c2.303 0 4.297.62 6.466 2.01 3.66 2.343 6.196 7.072 6.503 11.99zm-19-.119v-9.843L10.5 22l8.5 5.038v9.843L10.5 42zm20-22.969c0-3.831 3.14-6.947 7-6.947 3.858 0 6.997 3.116 6.997 6.947S32.858 20.86 29 20.86 22 17.743 22 13.912M44 38c0-5.922-2.996-11.82-7.456-14.674a15.3 15.3 0 0 0-3.2-1.583c2.772-1.527 4.653-4.463 4.653-7.831 0-4.933-4.036-8.947-8.998-8.947S20 8.979 20 13.912c0 3.322 1.834 6.221 4.545 7.765-2.078.623-4.017 1.661-5.592 3.027L10.5 20 0 25.881v12.157L10.5 44l8.826-5H44z"/></g></g></svg>
